X:160
T:Dusty miller, The
R:Slip jig
O:Ireland
M:9/8
K:G
B2d c2A B2G | E2A A2B cBA | \
   B2d cBA G2F | D2G G2A B2G :|
|: B2d def g3 | a2A A2B cBA | \
   B2d e2f gfe | d2B G2A B2G :|
|: D3 G2A BAG | E3 A2B cBA | \
   B2d cBA G2F | D2G G2A B2G:|
